X:1
T:Mottetto
T:Giovanni Pierluigi da Palestrina
T:Adoramus te Christe
%%score 1 2 3 4
L:1/8
M:4/4
K:Eb
V:1 treble-8 nm="Tenor 1" snm="T."
V:2 treble-8 nm="Tenor 2" snm="T."
V:3 bass nm="Baritone" snm="Bar."
V:4 bass nm="Bass" snm="B."
V:1
 c8 | c4 _d4 | c4 c2 (c2- | c2 BA B4) | c8 | z8 | z8 | z2 G2 c3 c | c2 B2 c4 | A4 G4 | %10
w: A-|do- ra-|mus te Chri-||ste|||et be- ne-|di- ci- mus|ti- bi,|
 (G3 F/G/ AG- G2- | G F3) G4- | G4 z2 c2 | c2 c2 e4- | e4 c4 | B2 G2 (ABcd | e8) | e8 | z8 | %19
w: ti- * * * * *|* * bi,-|* qui-|a per san-|* ctam|cru- cem tu- * * *||am||
 c4 B2 A2 | A2 F2 (c3 B/A/ | B2 c4 B2) | c2 c4 B2 | A2 G2 (F3 G | A2 GF G4) | F2 c2 c2 c2 | %26
w: re- de- mi-|* sti mun- * *||dum, re- de-|mi- sti mun- *||dum, qui- a per|
 (e3 d cB c2) | B4 e4- | e4 c4 | (c2 BA B4) | A4 z2 e2- | e2 _d2 c2 B2 | c8 | c8 |] %34
w: san- * * * *|ctam cru-|* cem|tu- * * *|am re-|* de- mi- sti|mun-|dum|
V:2
 E8 | =A4 B4 | E4 A2 A2 | (AGFE F4) | G4 z2 c2 | c3 c c2 c2 | _d2 (c4 B2) | c4 z4 | z6 F2 | c6 c2 | %10
w: A-|do- ra-|mus te Chri-||ste et|be- ne- di- ci-|mus ti- *|bi,|et|be- ne-|
 e2 d2 c2 (e2- | ed c4 =B2) | c2 c2 c2 c2 | (e3 d c4) | B4 e4- | e4 c4 | (c2 BA B4) | A2 c4 B2 | %18
w: di- ci- mus ti-||bi, qui- a per|san- * *|ctam cru-|* cem|tu- * * *|am re- de-|
 A2 G2 A4 | G4 z2 c2- | c2 B2 A2 G2 | (F2 E2 F4) | G2 e4 e2 | c2 (c3 B/A/ B2) | c8 | =A4 z2 c2 | %26
w: mi- sti mun-|dum re-|* de- mi- sti|mun- * *|dum, re- de-|mi- sti _ _ _|mun-|dum qui-|
 c2 c2 c4- | c4 c4 | B2 G2 (ABcd | e8) | c2 e3 d (c2- | c2 BA G2) F2 | G8 | =A8 |] %34
w: a- per san-|* ctam|cru- cem tu- * * *||am re- de- mi-|* * * * sti|mun-|dum.|
V:3
 =E,8 | F,4 F,4 | (A,3 G, F,2) E,2 | F,8 | E,4 z2 G,2 | A,3 A, A,2 G,2 | A,4 F,4 | G,2 E,2 A,3 A, | %8
w: A-|do- rm-|mus _ _ te|Chri-|ste et|be- ne- di- ci-|mus ti-|bi, et ben- ne-|
 A,2 G,2 A,4 | F,4 E,2 E,2 | C,2 D,2 E,2 E,2 | C,4 (D,4 | C,D,E,F, G,F,/G,/ A,2- | %13
w: di- ci- mus|ti- bi, et|be- ne- di- ci-|mus ti-||
 A,2) G,2 z2 G,2 | G,2 G,2 A,2 A,2 | G,2 B,4 (A,2- | A,2 G,F, G,4) | A,2 A,4 G,2 | F,2 E,2 F,4 | %19
w: * bi qui-|a per san- ctam|cru- cem tu-||am re- de-|mi- sti mun-|
 C,4 z4 | z2 F,4 E,2 | _D,2 C,2 D,4 | C,2 A,4 G,2 | F,2 E,2 (A,G, F,2- | F,2 =E,D, E,4) | F,8 | %26
w: dum,|re- de-|mi- sti mun-|dum, re- de-|mi- sti mun- * *||dum,|
 z6 G,2 | G,2 G,2 A,2 A,2 | G,2 B,4 (A,2- | A,2 G,F, G,4) | A,4 z2 A,2- | A,G, F,2 =E,2 (F,2- | %32
w: qui-|a per san- ctam|cru- cem tu-||am re-|* de- mi- sti mun-|
 F,2 =E,D, E,4) | F,8 |] %34
w: |dum.|
V:4
 C,8 | F,,4 B,,4 | A,,4 A,,4 | _D,8 | C,4 z2 C,2 | F,3 F, F,2 E,2 | F,4 _D,4 | C,4 z4 | z8 | %9
w: A-|do- ra-|mus te|Chri-|ste et|be- ne- di- ci-|mus ti-|bi,||
 F,,4 C,3 C, | C,2 B,,2 C,4 | (A,,4 G,,4) | C,8 | z2 C,2 C,2 C,2 | E,4 A,,4 | E,4 F,4 | E,8 | %17
w: et ben- ne-|di- ci- mus|ti- *|bi,|qui- a per|san- ctam|cru- cem|tu-|
 A,,4 z4 | z6 F,2- | F,2 E,2 _D,2 C,2 | _D,4 C,4 | z8 | z2 A,,4 E,2 | F,2 C,2 (_D,4 | C,8) | F,,8 | %26
w: am|re-|* de- mi- sti|mun- dum,||re- de-|mi- sti mun-||dum,|
 z2 C,2 C,2 C,2 | E,4 A,,4 | E,4 F,4 | E,8 | A,,4 A,,4- | A,,2 B,,2 C,2 _D,2 | C,8 | F,,8 |] %34
w: qui- a per|san- ctam|cru- cem|tu-|am re-|* di- mi- sti|mun-|dum.|

